X:23
T:The Boogie
R:reel
M:4/4
L:1/8
K:Dmaj
(3GFE|DEFA (3ded cd|(3B_BA F=B AFEF|DEFA dfec|(3dcB AF EGFE|
DEFA dcde|fd (3dcd (3B_BA FA|eAce gece|dAFA (3dcd:|
|:cd|eA (3AGA EA (3AGA|eAce (3gbg fg|fd (3dcd Ad (3dcd|(3fed af (3ded cd|
Be (3ede Beed|Bdef (3gbg fg|aAce gece|dAFA d2:|

